X: 18
T:Difyrrwch Gwyr Llanilltud
T:The Delight of the Men of Llanilltud
M:6/8
L:1/8
Q:130
S:Cadw Twmpath Collection
R:Jig
A:Wales
Z:brian_martin12345@yahoo.com
K:G
G2GG2A|B2dd2B|A2AA2B|c2ee2d|
G2GG2A|Bdd dcB|A2AA2B|cee edd:||
g2ed2B|g2ed2B|efgd2B|ABcB2A|
G3G2A|B2Gd3|dedB2A|G3z3:||
